X:1
T:inkar-usi
T:inkar-usi
T:DIA
C:DIA
%%score { 1 | 2 }
L:1/8
Q:1/4=102
M:4/4
K:F
V:1 treble nm="é’¢ç´" snm="Pno."
V:2 bass 
V:1
 a7/2 g/4a/4 d7/2 c/4d/4 | A2 G2 c2 de | fg a3/2{/e}f/ e2 c2 | d2 a6 | c'ag a2 aga | %5
 g3!8va(! f' e'c'gc'!8va)! | a2 g a2 ac'a | g4 f2 e2 | [Ad]4 [da]4 | [cg]3!8va(! f' e'c'gc'!8va)! | %10
 [da]4 [Ad]2 cf | [cg]4 [ca]4 | [Ad]4 [da]4 | [cg]3!8va(! f' e'c'gc'!8va)! | [da]4 [Ad]2 cf | %15
 [cg]4 [egc']4 | [B,D]4 [DA]7/2 G/4F/4 | [CG]6 FG |[K:Eb] [CEA]4 [Ae]7/2 d/4c/4 | [Gd]4 B2 ef | %20
 [ceg]4 [ceg]3/2a/4g/4 fe | [Bdf]4 B2 ef | [cg]6 c'2 | [=Bdg]8 || %24
[K:F] [^c^c']2 [dd']2 [ee']7/4e/4 f/>e/d/>=c/ | [FBd]2 [da]2 [ceg]2 c'f | %26
 [Ace]fec [DFA]7/4e/4 f/>e/d/>c/ | [FBd]2 [da]2 [A^cg]2!8va(! af' | [ac'e']f'e'c' [fad']2 d'c' | %29
 [f=bd']2 [d'a']3 g'c''f' | [ac'e']f'e'c' [dfa]2 d'c' | [gbd']2 [d'a']2 [d'a']2 d'g' | %32
 [ad'a']4 [a_d'a']4!8va)! | a7/2 g/4a/4 d7/2 c/4d/4 | A2 D4 FG | a7/2 g/4a/4 d7/2 c/4d/4 | %36
 A2 [Aa]6 | a7/2 g/4a/4 d7/2 c/4d/4 | A2 D4 de | fg a2 [Ace]2 [Ac]2 | [FBd]2 [ea]6 | [Adga]8 | %42
 [^c^c']2 [dd']2 [ee']7/4e/4 f/>e/d/>=c/ | [FBd]2 [da]2 [ceg]2 c'f | %44
 [Ace]fec [DFA]7/4e/4 f/>e/d/>c/ | [FBd]2 [da]2 [A^cg]2!8va(! af' | [ac'e']f'e'c' [fad']2 d'c' | %47
 [f=bd']2 [d'a']3 g'c''f' | [ac'e']f'e'c' [dfa]2 d'c' | [gbd']2 [d'a']2 [d'a']2 d'g' | %50
 [ad'a']4 [a_d'a']7/4!8va)!e/4 f/>e/d/>c/ | [FBd]2 [da]2 [ceg]2 c'f | %52
 [Ace]fec [DFA]7/4e/4 f/>e/d/>c/ | [FBd]2 [da]2 [A^cg]2!8va(! af' | [ac'e']f'e'c' [fad']2 d'c' | %55
 [f=bd']2 [d'a']3 g'c''f' | [ac'e']f'e'c' [dfa]2 d'c' | [gbd']2 [d'a']2 [ad']2 c'd' | %58
 [fbd']2 [d'a']2 [c'e'a']!8va)!d'/c'/ g/f/e/c/ | [DA]8- | [DA]8 |] %61
V:2
!ped! D,A,EA, C,A,EA,!ped-up! |!ped! B,,A, z A, z A, z A,!ped-up! | %2
!ped! G,,D,A,E A,,E,CA,!ped-up! |!ped! B,,F,EA, [A,A]E,CA,!ped-up! | %4
!ped! [A,,D,]A,DA, D,A,DA,!ped-up! |!ped! [G,,C,]G,CG, C,G,CA,!ped-up! | %6
!ped! [A,,D,]A,DA, C,G,CG,!ped-up! |!ped! [D,,A,,]D,[F,A,D]D, A,,D,[F,A,D]D,!ped-up! | %8
!ped! [D,,A,,]D,[F,A,D]D, A,,D,[F,A,D]D,!ped-up! |!ped! [G,,C,]C,[E,G,C]C, G,,C,[E,G,C]C,!ped-up! | %10
!ped! [D,,A,,]D,[F,A,D]D, A,,D,[F,A,D]D,!ped-up! |!ped! [G,,C,]C,[E,G,C]C, G,,C,[E,G,C]C,!ped-up! | %12
!ped! [D,,A,,]D,[F,A,D]D, A,,D,[F,A,D]D,!ped-up! |!ped! [G,,C,]C,[E,G,C]C, G,,C,[E,G,C]C,!ped-up! | %14
!ped! [D,,A,,]D,[F,A,D]D, A,,D,[F,A,D]D,!ped-up! |!ped! [G,,C,]C,[E,G,C]C, G,,C,[E,G,C]C,!ped-up! | %16
!ped! [D,,F,,B,,]4 [D,F,B,]4!ped-up! |!ped! [E,,G,,C,]4 [C,E,G,]2 G,E,!ped-up! | %18
[K:Eb]!ped! [A,,C,E,]4 [A,CE]4!ped-up! |!ped! [G,,B,,D,]4 [G,B,D]G,D,B,,!ped-up! | %20
!ped! [G,,C,E,]G,[CE]G, [CE]G,[CE]G,!ped-up! |!ped! [F,,B,,D,]F,[B,D]F, [B,D]F,[B,D]F,!ped-up! | %22
!ped! [E,,A,,C,]E,[A,C]E, [CE]E,[A,C]E,!ped-up! | %23
!ped! [D,,G,,=B,,]D,[G,=B,]D, [B,D]D,[G,B,]D,!ped-up! || %24
[K:F]!ped! [A,,^C,E,A,]2 [A,,C,E,A,]2 [A,,C,E,A,]2 [A,,C,E,A,]2!ped-up! | %25
!ped! [F,,B,,D,]D,[F,B,D]D, [G,,C,E,]E,[G,CE]E,!ped-up! | %26
!ped! [E,,A,,C,]C,[E,A,C]C, [F,,A,,D,]D,[F,A,D]D,!ped-up! | %27
!ped! [F,,B,,D,]D,[F,A,D]D, [A,,^C,E,]E,[A,^CE]E,!ped-up! | %28
!ped! [F,,A,,D,]D,[F,A,D]D, [G,,C,E,]C,[E,G,C]C,!ped-up! | %29
!ped! [G,,=B,,D,]D,[G,=B,D]D, [G,,_B,,D,]D,[G,_B,D]D,!ped-up! | %30
!ped! [E,,A,,C,]C,[E,A,C]C, [F,,A,,D,]D,[F,A,D]D,!ped-up! | %31
!ped! [G,,B,,_E,]E,[G,B,_E]E, [G,B,E]E,[G,B,E]E,!ped-up! | %32
!ped! [E,,A,,]E,[A,D]E, [E,,A,,]E,[A,_D]E,!ped-up! | %33
!ped! [A,,D,]D,[F,A,D]D, [G,,C,]C,[E,G,C]C,!ped-up! | %34
!ped! [F,,B,,]B,,[D,F,B,]B,, [G,,C,]C,[E,G,C]C,!ped-up! | %35
!ped! [A,,D,]D,[F,A,D]D, [G,,C,]C,[E,G,C]C,!ped-up! | %36
!ped! [F,,B,,]B,,[D,F,B,]B,, [G,,C,]C,[E,G,C]C,!ped-up! | %37
!ped! [A,,D,]D,[F,A,D]D, [G,,C,]C,[E,G,C]C,!ped-up! | %38
!ped! [F,,B,,]B,,[D,F,B,]B,, [G,,C,]C,[E,G,C]C,!ped-up! | %39
!ped! [G,,B,,D,]D,[G,B,D]D, [E,,A,,C,]C,[E,A,C]C,!ped-up! | %40
!ped! [F,,B,,D,]D,[F,B,D]D, [G,,C,E,]E,[G,CE]E,!ped-up! | %41
!ped! [G,,=B,,D,]D,[G,B,D]D, [G,B,E]D,[G,B,D]D,!ped-up! | %42
!ped! [A,,^C,E,A,]2 [A,,C,E,A,]2 [A,,C,E,A,]2 [A,,C,E,A,]2!ped-up! | %43
!ped! [F,,B,,D,]D,[F,B,D]D, [G,,C,E,]E,[G,CE]E,!ped-up! | %44
!ped! [E,,A,,C,]C,[E,A,C]C, [F,,A,,D,]D,[F,A,D]D,!ped-up! | %45
!ped! [F,,B,,D,]D,[F,A,D]D, [A,,^C,E,]E,[A,^CE]E,!ped-up! | %46
!ped! [F,,A,,D,]D,[F,A,D]D, [G,,C,E,]C,[E,G,C]C,!ped-up! | %47
!ped! [G,,=B,,D,]D,[G,=B,D]D, [G,,_B,,D,]D,[G,_B,D]D,!ped-up! | %48
!ped! [E,,A,,C,]C,[E,A,C]C, [F,,A,,D,]D,[F,A,D]D,!ped-up! | %49
!ped! [G,,B,,_E,]E,[G,B,_E]E, [G,B,E]E,[G,B,E]E,!ped-up! | %50
!ped! [E,,A,,]E,[A,D]E, [E,,A,,]E,[A,_D]E,!ped-up! | %51
!ped! [F,,B,,D,]D,[F,B,D]D, [G,,C,E,]E,[G,CE]E,!ped-up! | %52
!ped! [E,,A,,C,]C,[E,A,C]C, [F,,A,,D,]D,[F,A,D]D,!ped-up! | %53
!ped! [F,,B,,D,]D,[F,A,D]D, [A,,^C,E,]E,[A,^CE]E,!ped-up! | %54
!ped! [F,,A,,D,]D,[F,A,D]D, [G,,C,E,]C,[E,G,C]C,!ped-up! | %55
!ped! [G,,=B,,D,]D,[G,=B,D]D, [G,,_B,,D,]D,[G,_B,D]D,!ped-up! | %56
!ped! [E,,A,,C,]C,[E,A,C]C, [F,,A,,D,]D,[F,A,D]D,!ped-up! | %57
!ped! [F,,B,,D,]D,[F,B,D]D, [G,,C,E,]E,[G,CE]E,!ped-up! | %58
!ped! [F,,B,,D,]D,[F,B,D]D, [G,,C,E,]E,[G,CE]E,!ped-up! | [D,,A,,D,]8- | [D,,A,,D,]8 |] %61

